src/browser/themes/shared/zen-icons/lin/permissions-fill.svg

#filter dumbComments emptyLines substitution
# This Source Code Form is subject to the terms of the Mozilla Public
# License, v. 2.0. If a copy of the MPL was not distributed with this
# file, You can obtain one at http://mozilla.org/MPL/2.0/.
<svg xmlns="http://www.w3.org/2000/svg" height="18" width="18" viewBox="0 0 18 18"><g fill="context-fill" fill-opacity="context-fill-opacity" class="nc-icon-wrapper"><path d="M13.25,2H4.75c-1.517,0-2.75,1.233-2.75,2.75V13.25c0,1.517,1.233,2.75,2.75,2.75H13.25c1.517,0,2.75-1.233,2.75-2.75V4.75c0-1.517-1.233-2.75-2.75-2.75ZM5.25,6h1.25v-1c0-.414,.336-.75,.75-.75s.75,.336,.75,.75v3.5c0,.414-.336,.75-.75,.75s-.75-.336-.75-.75v-1h-1.25c-.414,0-.75-.336-.75-.75s.336-.75,.75-.75Zm3,6h-3c-.414,0-.75-.336-.75-.75s.336-.75,.75-.75h3c.414,0,.75,.336,.75,.75s-.336,.75-.75,.75Zm4.5,0h-1.25v1c0,.414-.336,.75-.75,.75s-.75-.336-.75-.75v-3.5c0-.414,.336-.75,.75-.75s.75,.336,.75,.75v1h1.25c.414,0,.75,.336,.75,.75s-.336,.75-.75,.75Zm0-4.5h-3c-.414,0-.75-.336-.75-.75s.336-.75,.75-.75h3c.414,0,.75,.336,.75,.75s-.336,.75-.75,.75Z"></path></g></svg>

#filter dumbComments emptyLines substitution
# This Source Code Form is subject to the terms of the Mozilla Public
# License, v. 2.0. If a copy of the MPL was not distributed with this
# file, You can obtain one at http://mozilla.org/MPL/2.0/.
<svg fill="context-fill" fill-opacity="context-fill-opacity" height="18" width="18" viewBox="0 0 18 18" xmlns="http://www.w3.org/2000/svg" xmlns:svg="http://www.w3.org/2000/svg"><path class="nc-icon-wrapper" d="M 13.25,2 H 4.75 C 3.233,2 2,3.233 2,4.75 v 8.5 C 2,14.767 3.233,16 4.75,16 h 8.5 C 14.767,16 16,14.767 16,13.25 V 4.75 C 16,3.233 14.767,2 13.25,2 Z m -8,4 H 6.5 V 5 C 6.5,4.586 6.836,4.25 7.25,4.25 7.664,4.25 8,4.586 8,5 V 8.5 C 8,8.914 7.664,9.25 7.25,9.25 6.836,9.25 6.5,8.914 6.5,8.5 v -1 H 5.25 C 4.836,7.5 4.5,7.164 4.5,6.75 4.5,6.336 4.836,6 5.25,6 Z m 3,6 h -3 C 4.836,12 4.5,11.664 4.5,11.25 4.5,10.836 4.836,10.5 5.25,10.5 h 3 C 8.664,10.5 9,10.836 9,11.25 9,11.664 8.664,12 8.25,12 Z m 4.5,0 H 11.5 v 1 c 0,0.414 -0.336,0.75 -0.75,0.75 C 10.336,13.75 10,13.414 10,13 V 9.5 c 0,-0.414 0.336,-0.75 0.75,-0.75 0.414,0 0.75,0.336 0.75,0.75 v 1 h 1.25 c 0.414,0 0.75,0.336 0.75,0.75 0,0.414 -0.336,0.75 -0.75,0.75 z m 0,-4.5 h -3 C 9.336,7.5 9,7.164 9,6.75 9,6.336 9.336,6 9.75,6 h 3 c 0.414,0 0.75,0.336 0.75,0.75 0,0.414 -0.336,0.75 -0.75,0.75 z"/></svg>
